symbols/web/fire_extinguisher/materialsymbolsoutlined/fire_extinguisher_wght300_20px.svg

<svg xmlns="http://www.w3.org/2000/svg" height="20" width="20"><path d="M7.75 17.708q-.625 0-1.042-.427-.416-.427-.416-1.031v-.625h7.416v.625q0 .604-.416 1.031-.417.427-1.042.427ZM6.292 14.75v-4.083h7.416v4.083Zm.041-4.958q.209-.875.834-1.625t1.729-1.084v-.104q-.25-.125-.469-.344-.219-.218-.344-.447L5.021 5.5v-.688l3.062-.687q.271-.521.782-.833.51-.313 1.135-.313.396 0 .74.125.343.125.635.354l2.333-.541v4.479l-2.27-.604q-.063.062-.146.114-.084.052-.167.094v.062q.979.313 1.656 1.063.677.75.886 1.667ZM10 5.917q.312 0 .531-.219.219-.219.219-.531 0-.313-.219-.532-.219-.218-.531-.218-.312 0-.531.208-.219.208-.219.521 0 .333.219.552.219.219.531.219Z"/></svg>

<svg xmlns="http://www.w3.org/2000/svg" height="20" width="20"><path d="M7.75 17.708Q7.125 17.708 6.708 17.281Q6.292 16.854 6.292 16.25V15.625H13.708V16.25Q13.708 16.854 13.292 17.281Q12.875 17.708 12.25 17.708ZM6.292 14.75V10.667H13.708V14.75ZM6.333 9.792Q6.542 8.917 7.167 8.167Q7.792 7.417 8.896 7.083V6.979Q8.646 6.854 8.427 6.635Q8.208 6.417 8.083 6.188L5.021 5.5V4.812L8.083 4.125Q8.354 3.604 8.865 3.292Q9.375 2.979 10 2.979Q10.396 2.979 10.74 3.104Q11.083 3.229 11.375 3.458L13.708 2.917V7.396L11.438 6.792Q11.375 6.854 11.292 6.906Q11.208 6.958 11.125 7V7.062Q12.104 7.375 12.781 8.125Q13.458 8.875 13.667 9.792ZM10 5.917Q10.312 5.917 10.531 5.698Q10.75 5.479 10.75 5.167Q10.75 4.854 10.531 4.635Q10.312 4.417 10 4.417Q9.688 4.417 9.469 4.625Q9.25 4.833 9.25 5.146Q9.25 5.479 9.469 5.698Q9.688 5.917 10 5.917Z"/></svg>
